www/assets/icons/enhanced_encryption.svg

<svg xmlns="http://www.w3.org/2000/svg" width="24" height="24" viewBox="0 0 24 24" fill='currentColor'><path d="M18 8.5h-1v-2c0-2.76-2.24-5-5-5s-5 2.24-5 5v2H6c-1.1 0-2 .9-2 2v10c0 1.1.9 2 2 2h12c1.1 0 2-.9 2-2v-10c0-1.1-.9-2-2-2m-9.1-2c0-1.71 1.39-3.1 3.1-3.1s3.1 1.39 3.1 3.1v2H8.9zm7.1 10h-3v3h-2v-3H8v-2h3v-3h2v3h3z"/></svg>

<svg width="24" height="24" viewBox="0 0 24 24" xmlns="http://www.w3.org/2000/svg" fill='currentColor'><path d="M18 8.5H17V6.5C17 3.74 14.76 1.5 12 1.5C9.24 1.5 7 3.74 7 6.5V8.5H6C4.9 8.5 4 9.4 4 10.5V20.5C4 21.6 4.9 22.5 6 22.5H18C19.1 22.5 20 21.6 20 20.5V10.5C20 9.4 19.1 8.5 18 8.5ZM8.9 6.5C8.9 4.79 10.29 3.4 12 3.4C13.71 3.4 15.1 4.79 15.1 6.5V8.5H8.9V6.5ZM16 16.5H13V19.5H11V16.5H8V14.5H11V11.5H13V14.5H16V16.5Z"/></svg>
